public/images/plus.svg

<svg fill="none" height="20" viewBox="0 0 20 20" width="20" xmlns="http://www.w3.org/2000/svg"><path d="m13 7h7v6h-7v7h-6v-7h-7v-6h7v-7h6z" fill="#47c552"/></svg>

<svg width="20" height="20" viewBox="0 0 20 20" fill="none" xmlns="http://www.w3.org/2000/svg">
<path d="M13 7H20V13H13V20H7V13H0V7H7V0H13V7Z" fill="#47C552"/>
</svg>
